iu/onmail.svg

<svg viewBox="0 0 512 512" xmlns="http://www.w3.org/2000/svg" xml:space="preserve" style="fill-rule:evenodd;clip-rule:evenodd;stroke-linejoin:round;stroke-miterlimit:2" height="1em" width="1em">
  <path d="M2176 1133.03c141.29 0 256 114.71 256 256 0 141.29-114.71 256-256 256-141.29 0-256-114.71-256-256 0-141.29 114.71-256 256-256Zm-10.7 77.62c-107.18 7.13-182.77 96.64-169.6 200.85 13.41 106.18 118.38 176.94 223.86 150.9 12.44-3.07 35.37-11.5 35.37-13 0-.36-17.47-36.5-17.83-36.87-.14-.14-1.86.46-3.83 1.34-78.62 35.06-171.44-8.26-192.81-90.01-20.34-77.81 28.8-154.82 108.01-169.26 94.78-17.29 176.25 55.45 166.7 148.82-2.61 25.54-11.22 36.89-27.96 36.88-13.64-.01-24.45-7.06-27.61-18.01-1.06-3.66-1.19-5.49-1.57-21.44-.67-28.96-2.07-36.83-9.11-51.17-31.36-63.92-125.23-57.46-147.64 10.17-4.21 12.7-4.39 14.76-4.57 50.53l-.15 30.14 20.89-.09 20.89-.09.19-29.88c.21-33.09.1-31.42 2.57-38.29 12.36-34.41 60.91-33.72 72.62 1.03 1.86 5.5 2.05 7.6 2.57 27.13.27 10.11.58 19.3.7 20.44 3.65 35.82 32.88 61.31 70.29 61.29 49.86-.03 77.63-46.78 68.93-116.07-11.7-93.24-95.79-161.66-190.91-155.34Z" style="fill:#085aff" transform="translate(-1920 -1133.03)"/>
</svg>

<svg viewBox="0 0 512 512" version="1.1" xmlns="http://www.w3.org/2000/svg" xml:space="preserve" style="fill-rule:evenodd;clip-rule:evenodd;stroke-linejoin:round;stroke-miterlimit:2" height="1em" width="1em">
  <g transform="matrix(1,0,0,1,-1920,-1133.03)">
    <path d="M2176,1133.03C2317.29,1133.03 2432,1247.74 2432,1389.03C2432,1530.32 2317.29,1645.03 2176,1645.03C2034.71,1645.03 1920,1530.32 1920,1389.03C1920,1247.74 2034.71,1133.03 2176,1133.03ZM2165.3,1210.65C2058.12,1217.78 1982.53,1307.29 1995.7,1411.5C2009.11,1517.68 2114.08,1588.44 2219.56,1562.4C2232,1559.33 2254.93,1550.9 2254.93,1549.4C2254.93,1549.04 2237.46,1512.9 2237.1,1512.53C2236.96,1512.39 2235.24,1512.99 2233.27,1513.87C2154.65,1548.93 2061.83,1505.61 2040.46,1423.86C2020.12,1346.05 2069.26,1269.04 2148.47,1254.6C2243.25,1237.31 2324.72,1310.05 2315.17,1403.42C2312.56,1428.96 2303.95,1440.31 2287.21,1440.3C2273.57,1440.29 2262.76,1433.24 2259.6,1422.29C2258.54,1418.63 2258.41,1416.8 2258.03,1400.85C2257.36,1371.89 2255.96,1364.02 2248.92,1349.68C2217.56,1285.76 2123.69,1292.22 2101.28,1359.85C2097.07,1372.55 2096.89,1374.61 2096.71,1410.38L2096.56,1440.52L2117.45,1440.43L2138.34,1440.34L2138.53,1410.46C2138.74,1377.37 2138.63,1379.04 2141.1,1372.17C2153.46,1337.76 2202.01,1338.45 2213.72,1373.2C2215.58,1378.7 2215.77,1380.8 2216.29,1400.33C2216.56,1410.44 2216.87,1419.63 2216.99,1420.77C2220.64,1456.59 2249.87,1482.08 2287.28,1482.06C2337.14,1482.03 2364.91,1435.28 2356.21,1365.99C2344.51,1272.75 2260.42,1204.33 2165.3,1210.65Z" style="fill:rgb(8,90,255)"/>
  </g>
</svg>
